Numix/48/actions/stock_timezone.svg

<?xml version="1.0" encoding="UTF-8" standalone="no"?>
<svg
   xmlns:dc="http://purl.org/dc/elements/1.1/"
   xmlns:cc="http://creativecommons.org/ns#"
   xmlns:rdf="http://www.w3.org/1999/02/22-rdf-syntax-ns#"
   xmlns:svg="http://www.w3.org/2000/svg"
   xmlns="http://www.w3.org/2000/svg"
   xmlns:sodipodi="http://sodipodi.sourceforge.net/DTD/sodipodi-0.dtd"
   xmlns:inkscape="http://www.inkscape.org/namespaces/inkscape"
   width="48"
   height="48"
   viewBox="0 0 48 48"
   id="svg2"
   version="1.1"
   inkscape:version="0.91 r13725"
   sodipodi:docname="stock_timezone.svg">
  <metadata
     id="metadata12">
    <rdf:RDF>
      <cc:Work
         rdf:about="">
        <dc:format>image/svg+xml</dc:format>
        <dc:type
           rdf:resource="http://purl.org/dc/dcmitype/StillImage" />
        <dc:title></dc:title>
      </cc:Work>
    </rdf:RDF>
  </metadata>
  <defs
     id="defs10">
    <clipPath
       id="clipPath-314453158">
      <g
         transform="translate(0,-1004.3622)"
         id="g17">
        <path
           d="m -24,13 c 0,1.105 -0.672,2 -1.5,2 -0.828,0 -1.5,-0.895 -1.5,-2 0,-1.105 0.672,-2 1.5,-2 0.828,0 1.5,0.895 1.5,2 z"
           transform="matrix(15.333333,0,0,11.5,414.99999,878.8622)"
           style="fill:#1890d0"
           id="path19"
           inkscape:connector-curvature="0" />
      </g>
    </clipPath>
  </defs>
  <sodipodi:namedview
     pagecolor="#ffffff"
     bordercolor="#666666"
     borderopacity="1"
     objecttolerance="10"
     gridtolerance="10"
     guidetolerance="10"
     inkscape:pageopacity="0"
     inkscape:pageshadow="2"
     inkscape:window-width="1366"
     inkscape:window-height="704"
     id="namedview8"
     showgrid="false"
     inkscape:zoom="5.6568542"
     inkscape:cx="6.2861859"
     inkscape:cy="35.24861"
     inkscape:window-x="0"
     inkscape:window-y="27"
     inkscape:window-maximized="1"
     inkscape:current-layer="svg2">
    <inkscape:grid
       type="xygrid"
       id="grid4181" />
  </sodipodi:namedview>
  <g
     id="g4164"
     transform="matrix(2.5,0,0,2.5,4,3.9999998)">
    <path
       style="fill:#298fd9;fill-opacity:1"
       d="M 24 4 C 21.775434 4 19.643344 4.3785731 17.644531 5.0488281 C 17.438123 5.8490348 16.639889 6.1876486 14.984375 6.1660156 C 14.353443 6.4856277 13.740659 6.8325026 13.150391 7.2148438 C 12.805981 7.9276461 12.512975 8.2213747 11.685547 8.2617188 C 10.047459 9.5452433 8.6056746 11.066882 7.4355469 12.792969 C 6.9183735 13.57062 7.4917649 14.696914 5.5996094 16.160156 C 4.5724355 18.568005 4 21.216724 4 24 C 4 30.652782 7.261073 36.530103 12.257812 40.166016 C 12.254971 40.166976 12.269376 40.1707 12.267578 40.171875 C 11.931967 40.39126 29.681421 44.314746 37.570312 38.662109 C 37.571341 38.661157 37.57319 38.661109 37.574219 38.660156 C 39.731204 36.662008 41.446847 34.202735 42.558594 31.427734 C 42.782492 30.091833 42.879489 29.540975 43.548828 28.205078 C 43.549128 28.203678 43.550482 28.202572 43.550781 28.201172 C 43.840668 26.845808 44 25.441928 44 24 C 44 23.989526 44.000016 23.97922 44 23.96875 C 44.000394 23.968415 43.999606 23.967132 44 23.966797 C 43.593346 22.896467 43.64237 22.585811 43.871094 21.753906 C 43.871022 21.753262 43.871166 21.752597 43.871094 21.751953 C 43.714622 20.353846 43.404119 19.004738 42.974609 17.708984 C 42.974869 17.708393 42.97435 17.707622 42.974609 17.707031 L 33.546875 6.421875 C 33.546087 6.4214461 33.54571 6.4203507 33.544922 6.4199219 C 30.708337 4.8766278 27.456575 4 24 4 z "
       transform="matrix(0.4,0,0,0.4,-1.6,-1.5999999)"
       id="path31" />
    <g
       style="fill:#cde626;fill-opacity:1"
       transform="matrix(0.34782608,0,0,0.34782609,-0.34782573,-0.347826)"
       id="g45">
      <g
         style="fill:#cde626;fill-opacity:1"
         clip-path="url(#clipPath-314453158)"
         id="g47">
        <!-- color: #20a0db -->
        <g
           style="fill:#cde626;fill-opacity:1"
           id="g49" />
      </g>
    </g>
    <g
       id="g4235">
      <path
         id="path4183"
         transform="matrix(0.4,0,0,0.4,-1.6,-1.5999999)"
         d="M 33.544922 6.4199219 C 33.020193 6.6519536 32.539328 6.9540148 32.169922 7.3027344 C 31.439968 6.0672908 31.221018 8.0601667 30.068359 7.5605469 C 29.276715 7.5246807 27.037814 9.0930486 27.451172 7.9667969 C 28.636754 7.2504801 24.954008 6.770717 24.222656 8.1269531 C 23.782438 8.9433036 22.619019 9.7487833 24.142578 9.7050781 C 24.767821 11.501838 25.14853 6.7818384 25.640625 8.6054688 C 25.29861 9.5663033 27.3443 9.0604888 25.699219 9.9199219 C 25.34383 10.854145 23.752099 10.751345 23.671875 10.208984 C 23.122944 11.005287 22.852577 10.539779 22.640625 11.400391 C 21.358373 11.646174 21.589866 11.977274 21.818359 12.867188 C 20.879783 12.601665 19.732204 14.299603 21.199219 14.712891 C 22.223697 13.575685 23.822117 11.785751 24.8125 14.113281 C 25.61327 13.885267 23.194616 11.803754 24.935547 12.972656 C 25.401252 13.601671 26.054401 15.45059 26.21875 13.652344 C 27.256826 13.952107 26.825269 11.363125 27.892578 12.763672 C 28.31305 11.344386 30.04055 14.375343 28.191406 13.4375 C 26.116367 13.37977 26.880558 15.113592 28.365234 14.832031 C 28.266154 16.640579 26.087995 15.318036 25.257812 16.005859 C 23.805435 15.918759 24.262056 13.817066 22.859375 14.720703 C 20.865099 14.550851 20.094621 16.468933 19.025391 17.800781 C 18.541761 19.338696 19.040396 22.25359 20.804688 22.113281 C 22.208029 21.648961 24.370293 21.886683 23.785156 23.814453 C 25.124385 25.493393 23.578691 27.619225 24.761719 29.402344 C 25.415513 30.302749 24.983875 32.045571 26.410156 31.197266 C 27.970098 30.756407 28.088535 28.57704 28.859375 27.332031 C 30.194757 26.136076 28.331065 23.803684 30.376953 22.734375 C 31.140414 22.167209 32.029394 19.940614 30.255859 20.773438 C 29.406697 19.657509 27.992934 17.726057 28.169922 16.617188 C 29.29345 17.440168 29.615959 21.095663 31.34375 19.683594 C 32.996202 19.098624 33.070678 17.285993 31.277344 17.236328 C 30.624779 16.518142 30.609295 15.304405 31.349609 16.775391 C 33.105791 17.195641 35.353743 17.332642 35.523438 19.539062 C 35.575628 20.645442 36.81608 22.082205 36.744141 20.142578 C 36.86634 18.691262 39.114311 16.720644 39.414062 19.265625 C 39.447322 19.454928 40.283819 18.759783 40.074219 19.894531 C 40.538385 19.888331 41.742797 22.315519 42.148438 20.386719 C 42.231828 19.762234 40.766751 18.03393 41.917969 18.259766 C 42.083956 19.580402 42.298281 18.156846 42.974609 17.708984 C 41.367075 12.859345 37.967431 8.8260656 33.544922 6.4199219 z M 11.441406 8.7558594 C 10.670934 8.6746684 10.059541 11.939044 9.1308594 10.65625 C 8.8023717 11.02204 8.4866976 11.397726 8.1855469 11.787109 C 8.9502239 12.442584 8.7041609 14.169874 7.9101562 12.59375 C 7.3633381 13.32065 7.4059008 13.276633 7.4355469 12.792969 C 6.7204255 13.847863 6.1053974 14.974513 5.5996094 16.160156 C 5.6709117 16.175928 5.7383987 16.180887 5.8144531 16.208984 C 7.064304 15.064949 7.4180681 18.369109 7.6445312 16.525391 C 8.0147734 14.477826 10.516332 13.561409 11.603516 12.191406 C 11.021239 11.001722 13.129217 11.021425 12.980469 12.128906 C 13.84931 12.850107 13.764363 9.9839485 13.017578 10.726562 C 12.803067 9.8004857 12.795788 9.7269909 12.042969 9.5332031 C 11.828327 8.995312 11.629795 8.7757114 11.441406 8.7558594 z M 21.708984 9.578125 C 21.180062 10.056785 21.898791 11.144071 21.652344 11.371094 C 23.093634 11.462994 21.941675 10.137823 21.708984 9.578125 z M 21.035156 10.605469 C 20.24872 11.292055 21.789814 11.295198 21.035156 10.605469 z M 30.554688 12.208984 C 30.560987 12.84853 32.250209 15.113602 30.705078 14.179688 C 30.590768 13.462649 29.236915 12.682616 30.554688 12.208984 z M 23.673828 13.240234 C 22.74643 14.023757 24.362652 14.319278 23.673828 13.240234 z M 22.583984 13.890625 C 22.462657 14.173875 22.911886 13.979065 22.583984 13.890625 z M 24.460938 14.296875 C 23.941907 14.89465 25.441305 14.834106 24.460938 14.296875 z M 7.3789062 17.90625 C 7.2349286 17.899761 7.0883099 17.918971 6.9394531 17.931641 C 6.7037736 18.508503 9.1992632 19.10571 7.8027344 18.03125 C 7.6648331 17.945206 7.5228839 17.912739 7.3789062 17.90625 z M 6.0488281 18.345703 C 5.9490602 18.309509 5.7441417 18.381287 5.3476562 18.621094 C 5.0826764 18.838018 4.859365 18.927263 4.671875 18.9375 C 4.6080984 19.181526 4.537118 19.422355 4.4824219 19.669922 C 5.3754004 20.079048 6.1418711 20.65345 6.7011719 21.548828 C 8.5679337 21.617877 6.295634 20.91741 6.3886719 19.998047 C 5.696061 19.53722 6.3481319 18.454285 6.0488281 18.345703 z M 8.4140625 20.617188 C 7.3332922 21.234897 7.287869 23.014569 6.9882812 24.111328 C 7.0602152 26.185905 9.4125413 27.188693 9.0507812 29.259766 C 9.1020473 31.444889 9.350971 33.791686 10.634766 35.623047 C 11.18291 36.444735 12.141928 36.360796 11.271484 35.402344 C 11.073932 34.209034 10.800897 32.695432 12.195312 32.226562 C 11.562224 31.004756 13.511223 30.852959 13.423828 29.396484 C 14.928413 28.412789 14.694403 26.444561 15.544922 24.972656 C 14.790711 23.557677 12.650732 23.989056 11.960938 22.25 C 10.922149 21.340699 9.9437952 20.520144 8.4140625 20.617188 z M 40.128906 21.042969 C 39.821403 22.139394 42.227751 23.710832 40.837891 21.859375 L 40.128906 21.042969 z M 37.001953 21.101562 C 36.091691 21.935553 37.649868 22.264816 37.001953 21.101562 z M 43.871094 21.751953 C 42.372104 21.982599 41.610361 24.234582 43.320312 24.375 C 43.624235 24.261434 43.837335 24.1218 44 23.96875 C 43.998848 23.219013 43.952596 22.480191 43.871094 21.751953 z M 40.039062 22.105469 C 39.954793 23.239523 41.647689 25.821093 43.496094 25.466797 C 41.96462 25.027032 41.382109 23.485396 40.214844 22.335938 L 40.039062 22.105469 z M 30.898438 26.335938 C 30.803287 27.177323 29.650629 27.317592 29.917969 28.15625 C 29.651423 31.398412 31.98913 26.546893 30.898438 26.335938 z M 43.550781 28.201172 C 42.783579 28.767474 42.094844 29.361594 42.466797 30.650391 C 42.388176 31.023114 42.437633 31.269215 42.558594 31.427734 C 42.974007 30.390834 43.312476 29.315365 43.550781 28.201172 z M 13.076172 34.560547 C 12.338076 34.785343 13.782569 35.104717 13.076172 34.560547 z M 12.339844 34.722656 C 11.677269 35.352836 12.913778 35.244693 12.339844 34.722656 z "
         style="fill:#70e963;fill-opacity:1" />
      <path
         id="path4186"
         transform="matrix(0.4,0,0,0.4,-1.6,-1.5999999)"
         d="M 19.837891 5.0292969 C 19.150261 5.0203069 18.235807 5.0863381 17.644531 5.0488281 C 16.725252 5.3570871 15.838596 5.7332915 14.984375 6.1660156 C 15.097757 6.1997346 15.182132 6.233443 15.345703 6.265625 C 16.06995 7.2013098 13.809674 8.736857 15.736328 9.21875 C 17.640502 7.9312512 19.386437 7.7253649 20.15625 5.7929688 C 21.165249 5.1753313 20.688975 5.0404194 19.837891 5.0292969 z M 25.253906 5.3007812 C 24.300575 5.1940629 23.826502 6.1297824 25.189453 5.7246094 C 25.418902 5.8339919 25.669106 5.6694346 25.6875 5.4179688 C 25.535702 5.3531972 25.390096 5.3160267 25.253906 5.3007812 z M 30.453125 5.7246094 C 29.447809 5.8061094 28.921755 7.7363182 29.884766 6.8359375 C 29.477179 5.8508351 31.419838 6.5244226 30.910156 5.8164062 C 30.749922 5.7389662 30.596742 5.7129668 30.453125 5.7246094 z M 13.150391 7.2148438 C 12.809418 7.4357054 12.480544 7.6714724 12.154297 7.9121094 C 12.111747 7.9660504 12.03507 8.022597 11.929688 8.0800781 C 11.848918 8.1414121 11.765346 8.1991917 11.685547 8.2617188 C 12.394874 9.2427622 12.885998 8.7088328 13.21875 7.9238281 C 14.041481 8.1173076 13.709175 7.6669924 13.150391 7.2148438 z M 20.222656 8.0292969 C 20.014341 8.0075309 19.711816 8.004919 19.292969 8.03125 C 18.578191 9.2776396 21.680866 8.181656 20.222656 8.0292969 z M 13.648438 38.298828 C 13.363587 39.041541 12.269507 39.101194 12.691406 39.962891 C 12.556891 40.060321 12.410781 40.124283 12.257812 40.166016 C 15.557515 42.567067 19.606695 44 24 44 C 29.246504 44 34.006892 41.96479 37.574219 38.660156 C 35.502983 38.686406 33.430024 38.987115 31.517578 39.789062 C 32.225073 38.548023 30.436873 39.541824 29.853516 38.462891 C 27.785776 39.74117 25.327574 39.470856 22.974609 39.580078 C 21.076454 39.376123 19.889342 41.128657 17.898438 40.376953 C 16.189756 40.489152 14.195918 40.834393 13.90625 38.5625 L 13.648438 38.298828 z "
         style="fill:#e6e6e6;fill-opacity:1" />
    </g>
  </g>
</svg>

<svg xmlns="http://www.w3.org/2000/svg" viewBox="0 0 48 48">
 <g transform="matrix(2.5,0,0,2.5,4,3.9999998)">
  <path d="m 24 4 c -2.225 0 -4.357 0.379 -6.355 1.049 c -0.206 0.8 -1 1.139 -2.66 1.117 c -0.631 0.32 -1.244 0.666 -1.834 1.049 c -0.344 0.713 -0.637 1.01 -1.465 1.047 c -1.638 1.284 -3.08 2.805 -4.25 4.531 c -0.517 0.778 0.056 1.904 -1.836 3.367 c -1.027 2.408 -1.6 5.057 -1.6 7.84 c 0 6.653 3.261 12.53 8.258 16.17 c -0.003 0.001 0.012 0.005 0.01 0.006 c -0.336 0.219 17.414 4.143 25.303 -1.51 c 0.001 -0.001 0.003 -0.001 0.004 -0.002 c 2.157 -1.998 3.873 -4.457 4.984 -7.232 c 0.224 -1.336 0.321 -1.887 0.99 -3.223 c 0 -0.001 0.002 -0.003 0.002 -0.004 c 0.29 -1.355 0.449 -2.759 0.449 -4.201 c 0 -0.01 0 -0.021 0 -0.031 c 0 0 0 -0.002 0 -0.002 c -0.407 -1.07 -0.358 -1.381 -0.129 -2.213 c 0 -0.001 0 -0.001 0 -0.002 c -0.156 -1.398 -0.467 -2.747 -0.896 -4.04 c 0 -0.001 0 -0.001 0 -0.002 l -9.428 -11.285 c -0.001 0 -0.001 -0.002 -0.002 -0.002 c -2.837 -1.543 -6.088 -2.42 -9.545 -2.42 z" transform="matrix(0.4,0,0,0.4,-1.6,-1.5999999)" style="fill:#298fd9;fill-opacity:1"/>
  <g transform="matrix(0.34782608,0,0,0.34782609,-0.34782573,-0.347826)" style="fill:#cde626;fill-opacity:1">
   <g>
    <!-- color: #20a0db -->
   </g>
  </g>
  <g>
   <path transform="matrix(0.4,0,0,0.4,-1.6,-1.5999999)" d="m 33.545 6.42 c -0.525 0.232 -1.01 0.534 -1.375 0.883 c -0.73 -1.235 -0.949 0.757 -2.102 0.258 c -0.792 -0.036 -3.03 1.533 -2.617 0.406 c 1.186 -0.716 -2.497 -1.196 -3.229 0.16 c -0.44 0.816 -1.604 1.622 -0.08 1.578 c 0.625 1.797 1.01 -2.923 1.498 -1.1 c -0.342 0.961 1.704 0.455 0.059 1.314 c -0.355 0.934 -1.947 0.831 -2.027 0.289 c -0.549 0.796 -0.819 0.331 -1.031 1.191 c -1.282 0.246 -1.051 0.577 -0.822 1.467 c -0.939 -0.266 -2.086 1.432 -0.619 1.846 c 1.024 -1.137 2.623 -2.927 3.613 -0.6 c 0.801 -0.228 -1.618 -2.31 0.123 -1.141 c 0.466 0.629 1.119 2.478 1.283 0.68 c 1.038 0.3 0.607 -2.289 1.674 -0.889 c 0.42 -1.419 2.148 1.612 0.299 0.674 c -2.075 -0.058 -1.311 1.676 0.174 1.395 c -0.099 1.809 -2.277 0.486 -3.107 1.174 c -1.452 -0.087 -0.996 -2.189 -2.398 -1.285 c -1.994 -0.17 -2.765 1.748 -3.834 3.08 c -0.484 1.538 0.015 4.453 1.779 4.313 c 1.403 -0.464 3.566 -0.227 2.98 1.701 c 1.339 1.679 -0.206 3.805 0.977 5.588 c 0.654 0.9 0.222 2.643 1.648 1.795 c 1.56 -0.441 1.678 -2.62 2.449 -3.865 c 1.335 -1.196 -0.528 -3.528 1.518 -4.598 c 0.763 -0.567 1.652 -2.794 -0.121 -1.961 c -0.849 -1.116 -2.263 -3.047 -2.086 -4.156 c 1.124 0.823 1.446 4.478 3.174 3.066 c 1.652 -0.585 1.727 -2.398 -0.066 -2.447 c -0.653 -0.718 -0.668 -1.932 0.072 -0.461 c 1.756 0.42 4 0.557 4.174 2.764 c 0.052 1.106 1.293 2.543 1.221 0.604 c 0.122 -1.451 2.37 -3.422 2.67 -0.877 c 0.033 0.189 0.87 -0.506 0.66 0.629 c 0.464 -0.006 1.669 2.421 2.074 0.492 c 0.083 -0.624 -1.382 -2.353 -0.23 -2.127 c 0.166 1.321 0.38 -0.103 1.057 -0.551 c -1.608 -4.85 -5.01 -8.883 -9.43 -11.289 z m -22.1 2.336 c -0.77 -0.081 -1.382 3.183 -2.311 1.9 c -0.328 0.366 -0.644 0.741 -0.945 1.131 c 0.765 0.655 0.519 2.383 -0.275 0.807 c -0.547 0.727 -0.504 0.683 -0.475 0.199 c -0.715 1.055 -1.33 2.182 -1.836 3.367 c 0.071 0.016 0.139 0.021 0.215 0.049 c 1.25 -1.144 1.604 2.16 1.83 0.316 c 0.37 -2.048 2.872 -2.964 3.959 -4.334 c -0.582 -1.19 1.526 -1.17 1.377 -0.063 c 0.869 0.721 0.784 -2.145 0.037 -1.402 c -0.215 -0.926 -0.222 -1 -0.975 -1.193 c -0.215 -0.538 -0.413 -0.757 -0.602 -0.777 z m 10.268 0.822 c -0.529 0.479 0.19 1.566 -0.057 1.793 c 1.441 0.092 0.289 -1.233 0.057 -1.793 z m -0.674 1.027 c -0.786 0.687 0.755 0.69 0 0 z m 9.52 1.604 c 0.006 0.64 1.696 2.905 0.15 1.971 c -0.114 -0.717 -1.468 -1.497 -0.15 -1.971 z m -6.881 1.031 c -0.927 0.784 0.689 1.079 0 0 z m -1.09 0.65 c -0.121 0.283 0.328 0.088 0 0 z m 1.877 0.406 c -0.519 0.598 0.98 0.537 0 0 z m -17.08 3.609 c -0.144 -0.006 -0.291 0.013 -0.439 0.025 c -0.236 0.577 2.26 1.174 0.863 0.1 c -0.138 -0.086 -0.28 -0.119 -0.424 -0.125 z m -1.33 0.439 c -0.1 -0.036 -0.305 0.036 -0.701 0.275 c -0.265 0.217 -0.488 0.306 -0.676 0.316 c -0.064 0.244 -0.135 0.485 -0.189 0.732 c 0.893 0.409 1.659 0.984 2.219 1.879 c 1.867 0.069 -0.406 -0.631 -0.313 -1.551 c -0.693 -0.461 -0.041 -1.544 -0.34 -1.652 z m 2.365 2.271 c -1.081 0.618 -1.126 2.397 -1.426 3.494 c 0.072 2.075 2.424 3.077 2.062 5.148 c 0.051 2.185 0.3 4.532 1.584 6.363 c 0.548 0.822 1.507 0.738 0.637 -0.221 c -0.198 -1.193 -0.471 -2.707 0.924 -3.176 c -0.633 -1.222 1.316 -1.374 1.229 -2.83 c 1.505 -0.984 1.271 -2.952 2.121 -4.424 c -0.754 -1.415 -2.894 -0.984 -3.584 -2.723 c -1.039 -0.909 -2.02 -1.73 -3.547 -1.633 z m 31.715 0.426 c -0.308 1.096 2.099 2.668 0.709 0.816 l -0.709 -0.816 z m -3.127 0.059 c -0.91 0.834 0.648 1.163 0 0 z m 6.869 0.65 c -1.499 0.231 -2.261 2.483 -0.551 2.623 c 0.304 -0.114 0.517 -0.253 0.68 -0.406 c -0.001 -0.75 -0.047 -1.489 -0.129 -2.217 z m -3.832 0.354 c -0.084 1.134 1.609 3.716 3.457 3.361 c -1.531 -0.44 -2.114 -1.981 -3.281 -3.131 l -0.176 -0.23 z m -9.141 4.23 c -0.095 0.841 -1.248 0.982 -0.98 1.82 c -0.267 3.242 2.071 -1.609 0.98 -1.82 z m 12.652 1.865 c -0.767 0.566 -1.456 1.16 -1.084 2.449 c -0.079 0.373 -0.029 0.619 0.092 0.777 c 0.415 -1.037 0.754 -2.112 0.992 -3.227 z m -30.475 6.359 c -0.738 0.225 0.706 0.544 0 0 z m -0.736 0.162 c -0.663 0.63 0.574 0.522 0 0 z" style="fill:#70e963;fill-opacity:1"/>
   <path transform="matrix(0.4,0,0,0.4,-1.6,-1.5999999)" d="m 19.838 5.03 c -0.688 -0.009 -1.602 0.057 -2.193 0.02 c -0.919 0.308 -1.806 0.684 -2.66 1.117 c 0.113 0.034 0.198 0.067 0.361 0.1 c 0.724 0.936 -1.536 2.471 0.391 2.953 c 1.904 -1.287 3.65 -1.493 4.42 -3.426 c 1.01 -0.618 0.533 -0.753 -0.318 -0.764 z m 5.416 0.271 c -0.953 -0.107 -1.427 0.829 -0.064 0.424 c 0.229 0.109 0.48 -0.055 0.498 -0.307 c -0.152 -0.065 -0.297 -0.102 -0.434 -0.117 z m 5.199 0.424 c -1.01 0.082 -1.531 2.01 -0.568 1.111 c -0.408 -0.985 1.535 -0.312 1.025 -1.02 c -0.16 -0.077 -0.313 -0.103 -0.457 -0.092 z m -17.303 1.49 c -0.341 0.221 -0.67 0.457 -0.996 0.697 c -0.043 0.054 -0.119 0.11 -0.225 0.168 c -0.081 0.061 -0.164 0.119 -0.244 0.182 c 0.709 0.981 1.2 0.447 1.533 -0.338 c 0.823 0.193 0.49 -0.257 -0.068 -0.709 z m 7.07 0.814 c -0.208 -0.022 -0.511 -0.024 -0.93 0.002 c -0.715 1.246 2.388 0.15 0.93 -0.002 z m -6.574 30.27 c -0.285 0.743 -1.379 0.802 -0.957 1.664 c -0.135 0.097 -0.281 0.161 -0.434 0.203 c 3.3 2.401 7.349 3.834 11.742 3.834 c 5.247 0 10.01 -2.035 13.574 -5.34 c -2.071 0.026 -4.144 0.327 -6.06 1.129 c 0.707 -1.241 -1.081 -0.247 -1.664 -1.326 c -2.068 1.278 -4.526 1.01 -6.879 1.117 c -1.898 -0.204 -3.085 1.549 -5.076 0.797 c -1.709 0.112 -3.703 0.457 -3.992 -1.814 l -0.258 -0.264 z" style="fill:#e6e6e6;fill-opacity:1"/>
  </g>
 </g>
</svg>
